Adwaita++/actions/symbolic/object-straighten-symbolic.svg

<svg height="16" width="16" xmlns="http://www.w3.org/2000/svg">
  <g fill="#474747">
    <path d="m11.88 1.22-9.85 1.75c-.98.17-.81 1.15-.81 1.15l.5 2.88h12.19l-.88-4.97c-.17-.98-1.15-.81-1.15-.81zm-9.63 8.78.72 3.97c.17.98 1.16.81 1.16.81l9.84-1.75s.99-.17.81-1.16l-.34-1.87z"/>
    <path d="m1 8v1h1v-1zm2 0v1h1v-1zm2 0v1h1v-1zm2 0v1h1v-1zm2 0v1h1v-1zm2 0v1h1v-1zm2 0v1h1v-1zm2 0v1h1v-1z"/>
  </g>
</svg>

<svg xmlns="http://www.w3.org/2000/svg" width="16" height="16" version="1.1">
 <path style="fill:#474747" d="M 11.88,1.22 2.03,2.97 C 1.05,3.14 1.22,4.12 1.22,4.12 L 1.72,7 H 13.91 L 13.03,2.03 C 12.86,1.05 11.88,1.22 11.88,1.22 Z M 2.25,10 2.97,13.97 C 3.14,14.95 4.13,14.78 4.13,14.78 L 13.97,13.03 C 13.97,13.03 14.96,12.86 14.78,11.87 L 14.44,10 Z"/>
 <path style="fill:#474747" d="M 1,8 V 9 H 2 V 8 Z M 3,8 V 9 H 4 V 8 Z M 5,8 V 9 H 6 V 8 Z M 7,8 V 9 H 8 V 8 Z M 9,8 V 9 H 10 V 8 Z M 11,8 V 9 H 12 V 8 Z M 13,8 V 9 H 14 V 8 Z M 15,8 V 9 H 16 V 8 Z"/>
</svg>
